app/assets/img/cat-education.svg

<svg height="49" viewBox="0 0 60 49" width="60" xmlns="http://www.w3.org/2000/svg"><path d="m30.9090909 53.7122222v10.8888889l19.0909091 10.3988889 19.0909091-10.3988889v-10.8888889l-19.0909091 10.3988889zm19.0909091-27.7122222-30 16.3333333 30 16.3333334 24.5454545-13.3661111v18.8105555h5.4545455v-21.7777778z" transform="translate(-20 -26)"/></svg>

<?xml version="1.0" encoding="UTF-8"?>
<svg width="60px" height="49px" viewBox="0 0 60 49" version="1.1" xmlns="http://www.w3.org/2000/svg" xmlns:xlink="http://www.w3.org/1999/xlink">
    <!-- Generator: Sketch 50.2 (55047) - http://www.bohemiancoding.com/sketch -->
    <title>cat-education</title>
    <desc>Created with Sketch.</desc>
    <defs>
        <path d="M30.9090909,53.7122222 L30.9090909,64.6011111 L50,75 L69.0909091,64.6011111 L69.0909091,53.7122222 L50,64.1111111 L30.9090909,53.7122222 Z M50,26 L20,42.3333333 L50,58.6666667 L74.5454545,45.3005556 L74.5454545,64.1111111 L80,64.1111111 L80,42.3333333 L50,26 Z" id="path-1"></path>
    </defs>
    <g id="Page-1" stroke="none" stroke-width="1" fill="none" fill-rule="evenodd">
        <g id="askdarcel/icon/category/education" transform="translate(-20.000000, -26.000000)">
            <mask id="mask-2" fill="white">
                <use xlink:href="#path-1"></use>
            </mask>
            <use id="cat-education" fill="#000000" fill-rule="nonzero" xlink:href="#path-1"></use>
        </g>
    </g>
</svg>
